X: 8
T: The Boys Of The Town
R: jig
M: 6/8
L: 1/8
K: Gmaj
GAG GBd | edB dBA | GAG GBd | edB AFD |GAG GBd | edB gag | edB AGA | B/A/GF G2 :|def gfg | afd edB | def gfg | afd e2 B |[1 def gfg | afd eag | edB AGA | B/A/GF G2 :|[2 def gbb | faa eag | edB AGA | B/A/GF GE |]


Tune 1035	Setting 14263

